X: 17164
T: Hen's March, The
R: jig
M: 6/8
K: Dmajor
dBB B2 A|BGG G2 B|BAA ABA|BGG G2 B|
dBB B2 A|BGG GAB|ABA ABd|1 e3 g2 e:|2 e3 e2 f||
gee a2 g|fdd def|gee efg|fdd def|
gee a2 g|fdd def|gfe fed|1 e3 e2 f:|2 e3 g2 e||
dBB ABB|GBB ABB|GBB ABd|e3 g2 e|
dBB ABB|GBB ABB|ABA ABd|1 e3 g2 e:|2 e3 e2 d||

